optimizied/calendar-a-add.svg

<svg xmlns="http://www.w3.org/2000/svg" viewBox="0 0 24 24" fill="currentColor">
  <path d="M0 0h24v24H0z"/>
  <path stroke-linecap="round" stroke-miterlimit="10" stroke-width="1.5" d="M16 15v6m3-3h-6m7-3V9c0-2.2-1.8-4-4-4H8C5.8 5 4 6.8 4 9v8c0 2.2 1.8 4 4 4h4M8 7V3m8 4V3m4 7H4"/>
</svg>

<svg xmlns="http://www.w3.org/2000/svg" viewBox="0 0 24 24" fill="currentColor">
  <path d="M0 0H24V24H0z"/>
  <path d="M16 15V21M19 18H13M20 15V9C20 6.8 18.2 5 16 5H8C5.8 5 4 6.8 4 9V17C4 19.2 5.8 21 8 21H12M8 7V3M16 7V3M20 10H4"/>
</svg>
